art/dp/systems_sel_1920/desktop.svg

<svg height="403" viewBox="0 0 1920 403" width="1920" xmlns="http://www.w3.org/2000/svg"><g stroke-width="6.19355" transform="matrix(.50000001 0 0 .50052081001 .0000235 .000002)"><path d="m3282.5806 61.935479h-61.9355v123.870971 433.54838 123.87096h61.9355v61.93549h185.8064v-61.93549h61.9355v-61.93548h123.871v-61.93548h61.9355 61.9355v-61.93549h61.9354v-123.87096-185.80645-123.87097h-61.9354v-61.935481h-61.9355v-61.935483h-247.742-61.9354-123.871z" fill="#120f26"/><path d="m3468.387 619.35483h185.8065v-61.93549h123.871v-309.67741h-61.9355v-61.93548h-247.742-61.9354-123.871v557.41934h185.8064zm123.871-309.67742v123.87097h-61.9355v61.93548h-61.9355v-185.80645z" fill="#666"/><path d="m3468.387 495.48386h185.8065v-61.93548h123.871v-309.67742h-61.9355v-61.935481h-247.742-61.9354-123.871v557.419351h185.8064zm123.871-309.67741v123.87096h-61.9355v61.93548h-61.9355v-185.80644z" fill="#fff"/><path d="m619.35478 123.871h-61.93548v-61.935481h-61.93548v-61.935483h-247.74193-123.87097-61.935484v61.935483h-61.9354825v123.870961 433.54839 123.87096h61.9354825v61.93548h61.935484 123.87097 185.80644v-61.93548h61.93549 61.93548v-61.93548h61.93548v-123.87097-309.67741z" fill="#120f26"/><path d="m495.48382 247.74197v-61.93549h-247.74193-123.87097-61.935484v557.41935h61.935484 123.87097 185.80644v-61.93548h123.87097v-433.54838zm-247.74193 61.93548h123.87096v247.74193h-61.93548v61.93549h-61.93548z" fill="#666"/><path d="m495.48382 123.871v-61.935481h-247.74193-123.87097-61.935484v557.419351h61.935484 123.87097 185.80644v-61.93549h123.87097v-433.54838zm-247.74193 61.93548h123.87096v247.74194h-61.93548v61.93548h-61.93548z" fill="#fff"/><path d="m1114.8386 495.4839h-61.9354v-61.93548-61.93549-61.93548h61.9354v-123.87097-123.870961h-61.9354v-61.935483h-247.74197-61.93548-123.87097v61.935483h-61.93548v123.870961 433.54839 123.87096h61.93548v61.93548h123.87097 61.93548 247.74197v-61.93548h61.9354v-123.87096z" fill="#120f26"/><path d="m1052.9032 619.35487h-247.74197v-61.93549h185.80645v-123.87096h-185.80645v-123.87097h247.74197v-123.87097h-247.74197-61.93548-123.87097v557.41935h123.87097 61.93548 247.74197z" fill="#666"/><path d="m1052.9032 495.4839h-247.74197v-61.93548h185.80645v-123.87097h-185.80645v-123.87097h247.74197v-123.870961h-247.74197-61.93548-123.87097v557.419351h123.87097 61.93548 247.74197z" fill="#fff"/><path d="m1610.3225 123.87096v-61.935481h-61.9355v-61.935483h-371.6129v61.935483h-61.9355v61.935481h-61.9354v123.87097 61.93548 123.87097 123.87096 123.87097h61.9354v61.93548h61.9355v61.93549h371.6129v-61.93549h61.9355v-61.93548h61.9355v-123.87097-61.93548-123.87097-123.87096-123.87097z" fill="#120f26"/><path d="m1114.8386 557.41934v123.87097h61.9355v61.93548h371.6129v-61.93548h61.9355v-185.80645h-61.9355v-61.93548h-123.8709v-61.93549h-123.871v-61.93548h123.871v61.93548h185.8064v-123.87096h-61.9355v-61.93548h-371.6129v61.93548h-61.9355v185.80645h61.9355v61.93548h123.871v61.93548h123.871v61.93549h-123.871v-61.93549z" fill="#666"/><path d="m1114.8386 433.54838v123.87096h61.9355v61.93549h371.6129v-61.93549h61.9355v-185.80645h-61.9355v-61.93548h-123.8709v-61.93548h-123.871v-61.93548h123.871v61.93548h185.8064v-123.87097h-61.9355v-61.935481h-371.6129v61.935481h-61.9355v185.80645h61.9355v61.93548h123.871v61.93549h123.871v61.93548h-123.871v-61.93548z" fill="#fff"/><path d="m2167.742 371.61293v-61.93548h61.9354v-123.87097-123.870961h-61.9354v-61.935483h-123.871v61.935483h-61.9355v61.935481h-61.9355v-61.935481h-61.9355v-61.935483h-185.8064v61.935483h-61.9355v123.870961 433.54839 123.87096h61.9355v61.93548h185.8064v-61.93548h61.9355 61.9355v61.93548h185.8065v-61.93548h61.9354v-123.87096-123.87097h-61.9354v-61.93548h-61.9355v-61.93549z" fill="#120f26"/><path d="m1858.0645 371.61293v-185.80645h-185.8064v557.41935h185.8064v-123.87096h61.9355v61.93548h61.9355v61.93548h185.8065v-123.87096h-61.9355v-61.93549h-61.9355v-61.93548h-61.9355v-61.93548h61.9355v-61.93549h61.9355v-61.93548h61.9355v-123.87097h-123.871v61.93549h-61.9355v61.93548h-61.9355v61.93548z" fill="#666"/><path d="m1858.0645 247.74197v-185.806451h-185.8064v557.419351h185.8064v-123.87097h61.9355v61.93548h61.9355v61.93549h185.8065v-123.87097h-61.9355v-61.93548h-61.9355v-61.93549h-61.9355v-61.93548h61.9355v-61.93548h61.9355v-61.93549h61.9355v-123.870961h-123.871v61.935481h-61.9355v61.93548h-61.9355v61.93549z" fill="#fff"/><path d="m2167.7419 61.935479v123.870971 123.87096h61.9355v61.93548h61.9355v247.74194 123.87096h61.9355v61.93549h185.8064v-61.93549h61.9355v-123.87096-247.74194h61.9355v-61.93548h61.9355v-123.87096-123.870971h-61.9355v-61.935483h-433.5484v61.935483z" fill="#120f26"/><path d="m2663.2258 185.80645h-433.5484v123.87096h123.871v433.54838h185.8064v-433.54838h123.871z" fill="#666"/><path d="m2663.2258 61.935479h-433.5484v123.870971h123.871v433.54838h185.8064v-433.54838h123.871z" fill="#fff"/><path d="m3220.6451 123.87096v-61.935481h-61.9355v-61.935483h-371.6129v61.935483h-61.9354v61.935481h-61.9355v123.87097 309.67741 123.87097h61.9355v61.93548h61.9354v61.93549h371.6129v-61.93549h61.9355v-61.93548h61.9355v-123.87097-309.67741-123.87097z" fill="#120f26"/><path d="m3158.7096 743.22579v-61.93548h61.9355v-433.54838h-61.9355v-61.93548h-371.6129v61.93548h-61.9354v433.54838h61.9354v61.93548zm-247.7419-123.87096v-309.67742h123.871v309.67742z" fill="#666"/><path d="m3158.7096 619.35483v-61.93549h61.9355v-433.54838h-61.9355v-61.935481h-371.6129v61.935481h-61.9354v433.54838h61.9354v61.93549zm-247.7419-123.87097v-309.67741h123.871v309.67741z" fill="#fff"/></g></svg>

<?xml version="1.0" encoding="UTF-8" standalone="no"?>
<svg
   height="403"
   viewBox="0 0 1920 403"
   width="1920"
   version="1.1"
   id="svg21"
   sodipodi:docname="desktop.svg"
   inkscape:version="1.3.2 (091e20e, 2023-11-25)"
   xmlns:inkscape="http://www.inkscape.org/namespaces/inkscape"
   xmlns:sodipodi="http://sodipodi.sourceforge.net/DTD/sodipodi-0.dtd"
   xmlns="http://www.w3.org/2000/svg"
   xmlns:svg="http://www.w3.org/2000/svg">
  <defs
     id="defs21" />
  <sodipodi:namedview
     id="namedview21"
     pagecolor="#ffffff"
     bordercolor="#000000"
     borderopacity="0.25"
     inkscape:showpageshadow="2"
     inkscape:pageopacity="0.0"
     inkscape:pagecheckerboard="0"
     inkscape:deskcolor="#d1d1d1"
     inkscape:zoom="0.24557292"
     inkscape:cx="1922.036"
     inkscape:cy="403.13891"
     inkscape:window-width="1312"
     inkscape:window-height="449"
     inkscape:window-x="0"
     inkscape:window-y="23"
     inkscape:window-maximized="0"
     inkscape:current-layer="svg21" />
  <g
     id="g1"
     transform="scale(0.50000001)">
    <g
       id="g22"
       transform="matrix(1,0,0,1.0010416,4.65e-5,4.0041664e-6)">
      <g
         stroke-width="6.19355"
         id="g21">
        <path
           d="m 3282.5806,61.935479 h -61.9355 V 185.80645 619.35483 743.22579 h 61.9355 v 61.93549 h 185.8064 v -61.93549 h 61.9355 v -61.93548 h 123.871 v -61.93548 h 61.9355 61.9355 v -61.93549 h 61.9354 V 433.54838 247.74193 123.87096 h -61.9354 V 61.935479 H 3716.129 V -3.9999999e-6 h -247.742 -61.9354 -123.871 z"
           fill="#120f26"
           id="path1" />
        <path
           d="m 3468.387,619.35483 h 185.8065 v -61.93549 h 123.871 V 247.74193 h -61.9355 v -61.93548 h -247.742 -61.9354 -123.871 v 557.41934 h 185.8064 z m 123.871,-309.67742 v 123.87097 h -61.9355 v 61.93548 H 3468.387 V 309.67741 Z"
           fill="#666666"
           id="path2" />
        <path
           d="m 3468.387,495.48386 h 185.8065 v -61.93548 h 123.871 V 123.87096 H 3716.129 V 61.935479 h -247.742 -61.9354 -123.871 V 619.35483 h 185.8064 z m 123.871,-309.67741 v 123.87096 h -61.9355 v 61.93548 H 3468.387 V 185.80645 Z"
           fill="#ffffff"
           id="path3" />
        <path
           d="M 619.35478,123.871 H 557.4193 V 61.935519 H 495.48382 V 3.6e-5 H 247.74189 123.87092 61.935436 V 61.935519 H -4.65e-5 V 185.80648 619.35487 743.22583 H 61.935436 v 61.93548 h 61.935484 123.87097 185.80644 v -61.93548 h 61.93549 61.93548 v -61.93548 h 61.93548 V 557.41938 247.74197 Z"
           fill="#120f26"
           id="path4" />
        <path
           d="M 495.48382,247.74197 V 185.80648 H 247.74189 123.87092 61.935436 V 743.22583 H 123.87092 247.74189 433.54833 V 681.29035 H 557.4193 V 247.74197 Z m -247.74193,61.93548 h 123.87096 v 247.74193 h -61.93548 v 61.93549 h -61.93548 z"
           fill="#666666"
           id="path5" />
        <path
           d="M 495.48382,123.871 V 61.935519 H 247.74189 123.87092 61.935436 V 619.35487 H 123.87092 247.74189 433.54833 V 557.41938 H 557.4193 V 123.871 Z m -247.74193,61.93548 h 123.87096 v 247.74194 h -61.93548 v 61.93548 h -61.93548 z"
           fill="#ffffff"
           id="path6" />
        <path
           d="m 1114.8386,495.4839 h -61.9354 v -61.93548 -61.93549 -61.93548 h 61.9354 V 185.80648 61.935519 h -61.9354 V 3.6e-5 H 805.16123 743.22575 619.35478 V 61.935519 H 557.4193 V 185.80648 619.35487 743.22583 h 61.93548 v 61.93548 h 123.87097 61.93548 247.74197 v -61.93548 h 61.9354 V 619.35487 Z"
           fill="#120f26"
           id="path7" />
        <path
           d="M 1052.9032,619.35487 H 805.16123 V 557.41938 H 990.96768 V 433.54842 H 805.16123 V 309.67745 H 1052.9032 V 185.80648 H 805.16123 743.22575 619.35478 v 557.41935 h 123.87097 61.93548 247.74197 z"
           fill="#666666"
           id="path8" />
        <path
           d="M 1052.9032,495.4839 H 805.16123 V 433.54842 H 990.96768 V 309.67745 H 805.16123 V 185.80648 H 1052.9032 V 61.935519 H 805.16123 743.22575 619.35478 V 619.35487 h 123.87097 61.93548 247.74197 z"
           fill="#ffffff"
           id="path9" />
        <path
           d="M 1610.3225,123.87096 V 61.935479 H 1548.387 V -4e-6 h -371.6129 v 61.935483 h -61.9355 v 61.935481 h -61.9354 v 123.87097 61.93548 123.87097 123.87096 123.87097 h 61.9354 v 61.93548 h 61.9355 v 61.93549 h 371.6129 v -61.93549 h 61.9355 v -61.93548 h 61.9355 V 557.41934 495.48386 371.61289 247.74193 123.87096 Z"
           fill="#120f26"
           id="path10" />
        <path
           d="m 1114.8386,557.41934 v 123.87097 h 61.9355 v 61.93548 h 371.6129 v -61.93548 h 61.9355 V 495.48386 h -61.9355 v -61.93548 h -123.8709 v -61.93549 h -123.871 v -61.93548 h 123.871 v 61.93548 h 185.8064 V 247.74193 h -61.9355 v -61.93548 h -371.6129 v 61.93548 h -61.9355 v 185.80645 h 61.9355 v 61.93548 h 123.871 v 61.93548 h 123.871 v 61.93549 h -123.871 v -61.93549 z"
           fill="#666666"
           id="path11" />
        <path
           d="m 1114.8386,433.54838 v 123.87096 h 61.9355 v 61.93549 h 371.6129 v -61.93549 h 61.9355 V 371.61289 h -61.9355 v -61.93548 h -123.8709 v -61.93548 h -123.871 v -61.93548 h 123.871 v 61.93548 h 185.8064 V 123.87096 H 1548.387 V 61.935479 h -371.6129 v 61.935481 h -61.9355 v 185.80645 h 61.9355 v 61.93548 h 123.871 v 61.93549 h 123.871 v 61.93548 h -123.871 v -61.93548 z"
           fill="#ffffff"
           id="path12" />
        <path
           d="m 2167.742,371.61293 v -61.93548 h 61.9354 V 185.80648 61.935519 H 2167.742 V 3.6e-5 h -123.871 v 61.935483 h -61.9355 V 123.871 H 1920 V 61.935519 h -61.9355 V 3.6e-5 h -185.8064 v 61.935483 h -61.9355 V 185.80648 619.35487 743.22583 h 61.9355 v 61.93548 h 185.8064 V 743.22583 H 1920 h 61.9355 v 61.93548 h 185.8065 v -61.93548 h 61.9354 V 619.35487 495.4839 h -61.9354 v -61.93548 h -61.9355 v -61.93549 z"
           fill="#120f26"
           id="path13" />
        <path
           d="M 1858.0645,371.61293 V 185.80648 h -185.8064 v 557.41935 h 185.8064 V 619.35487 H 1920 v 61.93548 h 61.9355 v 61.93548 H 2167.742 V 619.35487 h -61.9355 V 557.41938 H 2043.871 V 495.4839 h -61.9355 v -61.93548 h 61.9355 v -61.93549 h 61.9355 v -61.93548 h 61.9355 V 185.80648 h -123.871 v 61.93549 h -61.9355 v 61.93548 H 1920 v 61.93548 z"
           fill="#666666"
           id="path14" />
        <path
           d="M 1858.0645,247.74197 V 61.935519 H 1672.2581 V 619.35487 h 185.8064 V 495.4839 H 1920 v 61.93548 h 61.9355 v 61.93549 H 2167.742 V 495.4839 h -61.9355 v -61.93548 h -61.9355 v -61.93549 h -61.9355 v -61.93548 h 61.9355 v -61.93548 h 61.9355 v -61.93549 h 61.9355 V 61.935519 H 2043.871 V 123.871 h -61.9355 v 61.93548 H 1920 v 61.93549 z"
           fill="#ffffff"
           id="path15" />
        <path
           d="M 2167.7419,61.935479 V 185.80645 309.67741 h 61.9355 v 61.93548 h 61.9355 v 247.74194 123.87096 h 61.9355 v 61.93549 h 185.8064 v -61.93549 h 61.9355 V 619.35483 371.61289 h 61.9355 v -61.93548 h 61.9355 V 185.80645 61.935479 h -61.9355 V -4e-6 h -433.5484 v 61.935483 z"
           fill="#120f26"
           id="path16" />
        <path
           d="m 2663.2258,185.80645 h -433.5484 v 123.87096 h 123.871 v 433.54838 h 185.8064 V 309.67741 h 123.871 z"
           fill="#666666"
           id="path17" />
        <path
           d="M 2663.2258,61.935479 H 2229.6774 V 185.80645 h 123.871 v 433.54838 h 185.8064 V 185.80645 h 123.871 z"
           fill="#ffffff"
           id="path18" />
        <path
           d="M 3220.6451,123.87096 V 61.935479 h -61.9355 V -4e-6 h -371.6129 v 61.935483 h -61.9354 v 61.935481 h -61.9355 v 123.87097 309.67741 123.87097 h 61.9355 v 61.93548 h 61.9354 v 61.93549 h 371.6129 v -61.93549 h 61.9355 v -61.93548 h 61.9355 V 557.41934 247.74193 123.87096 Z"
           fill="#120f26"
           id="path19" />
        <path
           d="m 3158.7096,743.22579 v -61.93548 h 61.9355 V 247.74193 h -61.9355 v -61.93548 h -371.6129 v 61.93548 h -61.9354 v 433.54838 h 61.9354 v 61.93548 z M 2910.9677,619.35483 V 309.67741 h 123.871 v 309.67742 z"
           fill="#666666"
           id="path20" />
        <path
           d="m 3158.7096,619.35483 v -61.93549 h 61.9355 V 123.87096 h -61.9355 V 61.935479 h -371.6129 v 61.935481 h -61.9354 v 433.54838 h 61.9354 v 61.93549 z M 2910.9677,495.48386 V 185.80645 h 123.871 v 309.67741 z"
           fill="#ffffff"
           id="path21" />
      </g>
    </g>
  </g>
</svg>
